X:16
T:Rheinl\"ander efter Omas Per Nilsson
R:schottis
A:Transtrand, Dalarna
Z:id:hn-schottis-16
M:C|
K:Dm
A|A^ced c2A2|Aaag f2d2|dfe<d ^cAc<e|edd^c A3A|
A^ced c2A2|Aaag f2d2|dfe<d ^cAc<e|edd^c d3:|
|:A|d^cd<e f4|d^cd<f e4|A^GA^c egfe|ded<^c A3A|
A^ced c2A2|Aaag f2d2|dfe<d ^cAc<e|edd^c d3:|
